svg/other/bedside_table_2_line.svg

<svg xmlns="http://www.w3.org/2000/svg" width="24" height="24" viewBox="0 0 24 24"><g fill="none" fill-rule="evenodd"><path d="M24,0 L24,24 L0,24 L0,0 L24,0 Z M12.5935,23.2578 L12.5819,23.2595 L12.5109,23.295 L12.4919,23.2987 L12.4767,23.295 L12.4057,23.2595 C12.3958,23.2564 12.387,23.259 12.3821,23.2649 L12.378,23.2758 L12.3609,23.7031 L12.3659,23.7235 L12.3769,23.7357 L12.4805,23.8097 L12.4953,23.8136 L12.5071,23.8097 L12.6107,23.7357 L12.6233,23.7197 L12.6267,23.7031 L12.6096,23.2758 C12.6076,23.2657 12.601,23.2593 12.5935,23.2578 Z M12.8584,23.1453 L12.8445,23.1473 L12.6598,23.2397 L12.6499,23.2499 L12.6472,23.2611 L12.6651,23.6906 L12.6699,23.7034 L12.6784,23.7105 L12.8793,23.8032 C12.8914,23.8069 12.9022,23.803 12.9078,23.7952 L12.9118,23.7812 L12.8777,23.1665 C12.8753,23.1546 12.8674,23.147 12.8584,23.1453 Z M12.143,23.1473 C12.1332,23.1424 12.1222,23.1453 12.1156,23.1526 L12.1099,23.1665 L12.0758,23.7812 C12.0751,23.7927 12.0828,23.8019 12.0926,23.8046 L12.1083,23.8032 L12.3092,23.7105 L12.3186,23.7024 L12.3225,23.6906 L12.3404,23.2611 L12.3372,23.2485 L12.3278,23.2397 L12.143,23.1473 Z"/><path fill="#09244B" d="M3,5 C3,3.89543 3.89543,3 5,3 L19,3 C20.1046,3 21,3.89543 21,5 L21,17 C21,18.1046 20.1046,19 19,19 L17.618,19 L17.8944,19.5528 C18.1414,20.0468 17.9412,20.6474 17.4472,20.8944 C16.9532,21.1414 16.3526,20.9412 16.1056,20.4472 L15.382,19 L8.61803,19 L7.89443,20.4472 C7.64744,20.9412 7.04676,21.1414 6.55279,20.8944 C6.05881,20.6474 5.85858,20.0468 6.10557,19.5528 L6.38197,19 L5,19 C3.89543,19 3,18.1046 3,17 L3,5 Z M8.02166,17 C8.00772,16.9997 7.99379,16.9997 7.97988,17 L5,17 L5,5 L11,5 L11,17 L8.02166,17 Z M13,17 L15.9783,17 C15.9923,16.9997 16.0062,16.9997 16.0201,17 L19,17 L19,5 L13,5 L13,17 Z M9,9 C9.55228,9 10,9.44772 10,10 L10,12 C10,12.5523 9.55228,13 9,13 C8.44772,13 8,12.5523 8,12 L8,10 C8,9.44772 8.44772,9 9,9 Z M15,9 C15.5523,9 16,9.44772 16,10 L16,12 C16,12.5523 15.5523,13 15,13 C14.4477,13 14,12.5523 14,12 L14,10 C14,9.44772 14.4477,9 15,9 Z"/></g></svg>

<svg xmlns="http://www.w3.org/2000/svg" width="24" height="24"><g fill="none" fill-rule="evenodd"><path d="M24 0v24H0V0zM12.594 23.258l-.012.002-.071.035-.02.004-.014-.004-.071-.036c-.01-.003-.019 0-.024.006l-.004.01-.017.428.005.02.01.013.104.074.015.004.012-.004.104-.074.012-.016.004-.017-.017-.427c-.002-.01-.009-.017-.016-.018m.264-.113-.014.002-.184.093-.01.01-.003.011.018.43.005.012.008.008.201.092c.012.004.023 0 .029-.008l.004-.014-.034-.614c-.003-.012-.01-.02-.02-.022m-.715.002a.023.023 0 0 0-.027.006l-.006.014-.034.614c0 .012.007.02.017.024l.015-.002.201-.093.01-.008.003-.011.018-.43-.003-.012-.01-.01z"/><path fill="#09244B" d="M3 5a2 2 0 0 1 2-2h14a2 2 0 0 1 2 2v12a2 2 0 0 1-2 2h-1.382l.276.553a1 1 0 1 1-1.788.894L15.382 19H8.618l-.724 1.447a1 1 0 1 1-1.788-.894L6.382 19H5a2 2 0 0 1-2-2zm5.022 12a.97.97 0 0 0-.042 0H5V5h6v12zM13 17h2.978a.97.97 0 0 1 .042 0H19V5h-6zM9 9a1 1 0 0 1 1 1v2a1 1 0 1 1-2 0v-2a1 1 0 0 1 1-1m6 0a1 1 0 0 1 1 1v2a1 1 0 1 1-2 0v-2a1 1 0 0 1 1-1"/></g></svg>
